src/static/logos/neat.svg

<?xml version="1.0" encoding="UTF-8" standalone="no"?>
<svg width="256px" height="258px" viewBox="0 0 256 258" version="1.1" xmlns="http://www.w3.org/2000/svg" xmlns:xlink="http://www.w3.org/1999/xlink" preserveAspectRatio="xMidYMid">
	<g>
		<path d="M255.31761,235.497517 C255.31761,246.722634 248.523254,257.652354 237.297795,257.652354 L23.1278604,257.652354 C11.9024018,257.652354 0.972349966,246.722634 0.972349966,235.497517 L0.972349966,0.656244734 L255.31761,235.497517" fill="#53AEE0"></path>
		<path d="M0.972349966,235.742697 C0.972349966,236.392572 0.993028443,237.039493 1.04029353,237.683461 C1.76994834,248.193715 8.41364742,257.897534 18.9921652,257.897534 L233.1621,257.897534 C248.605968,257.897534 255.31761,249.523006 255.31761,235.742697 L255.31761,0.606027103 L0.972349966,235.742697" fill="#3D81A6"></path>
		<path d="M255.31761,0.606027103 L255.31761,235.742697 L128.198153,118.118236 L255.31761,0.606027103" fill="#2B5B75"></path>
	</g>
</svg>

<svg width="256" height="258" xmlns="http://www.w3.org/2000/svg" preserveAspectRatio="xMidYMid"><path d="M255.318 235.498c0 11.225-6.795 22.154-18.02 22.154H23.128c-11.226 0-22.156-10.93-22.156-22.154V.656l254.346 234.842" fill="#53AEE0"/><path d="M.972 235.743c0 .65.021 1.296.068 1.94.73 10.51 7.374 20.215 17.952 20.215h214.17c15.444 0 22.156-8.375 22.156-22.155V.606L.972 235.743" fill="#3D81A6"/><path d="M255.318.606v235.137l-127.12-117.625L255.318.606" fill="#2B5B75"/></svg>
